X:32
T:Toss the Feathers (Em)
R:reel
E:7
M:C|
I:speed 350
K:EDor
|EB~B2 dB~B2|EBBA ~F3A|BE~E2 BABd|(3efg fe dBAF|\
EB~B2 dB~B2|EBBA FEFA|BE~E2 BABd|(3efg fe dBA2||*
|(3Bcd ed e3 e|fede fe~e2|febe febe|fede fe~e2|\
(3Bcd ed e3 e|fede fa~a2|bf~f2 af~f2|fgfe dBAF||**
<end>
<start>
